neru-dark-classic/22x22/actions/paint-gradient-conical.svg

<svg xmlns="http://www.w3.org/2000/svg" width="20" height="20"><defs><style id="current-color-scheme" type="text/css">.ColorScheme-Text{color:#d3dae3}</style></defs><path class="ColorScheme-Text" d="M19 10a9 9 0 0 1-9 9 9 9 0 0 1-9-9 9 9 0 0 1 9-9 9 9 0 0 1 9 9z" opacity=".3" fill="currentColor"/><path class="ColorScheme-Text" d="M10 1v9h9a9 9 0 0 0-9-9zm0 9H1a9 9 0 0 0 9 9z" fill="currentColor"/></svg>

<svg xmlns="http://www.w3.org/2000/svg" width="20" height="20" version="1.1">
 <defs>
  <style id="current-color-scheme" type="text/css">
   .ColorScheme-Text { color:#d3dae3; } .ColorScheme-Highlight { color:#3fb7ff; }
  </style>
 </defs>
 <path style="opacity:0.3;fill:currentColor" class="ColorScheme-Text" d="M 19,10 A 9,9 0 0 1 10,19 9,9 0 0 1 1,10 9,9 0 0 1 10,1 9,9 0 0 1 19,10 Z"/>
 <path style="fill:currentColor" class="ColorScheme-Text" d="M 10,1 V 10 H 19 A 9,9 0 0 0 10,1 Z M 10,10 H 1 A 9,9 0 0 0 10,19 Z"/>
</svg>
